packages/katcn/src/icons/svg/cursor.svg

<svg width="24" height="25" viewBox="0 0 24 25" fill="none" xmlns="http://www.w3.org/2000/svg">
<path d="M16.9722 22.968C16.2855 22.968 15.5988 22.6721 15.1083 22.1788L11.2822 18.3314L9.90879 20.6004C9.32017 21.4883 8.24103 21.9815 7.1619 21.8829C6.08276 21.6856 5.19983 20.8963 5.00363 19.8112L2.06053 6.19736C1.86433 5.3095 2.15864 4.42165 2.74726 3.73109C3.43398 3.04053 4.31691 2.84323 5.19983 3.04053L18.7381 6.00006C19.8172 6.19736 20.602 7.08522 20.7982 8.17038C20.9944 9.25554 20.5039 10.3407 19.5229 10.9326L17.3646 12.3137L21.1906 16.1611C22.2698 17.2463 22.2698 18.9233 21.1906 19.9098L18.8362 22.2775C18.3457 22.7707 17.6589 22.968 16.9722 22.968ZM11.086 15.7665C11.3803 15.7665 11.5765 15.8652 11.7727 16.0625L16.4817 20.7977C16.776 21.0937 17.1684 21.0937 17.4627 20.7977L19.8172 18.4301C19.9153 18.3314 20.0134 18.1341 20.0134 17.9368C20.0134 17.7395 19.9153 17.5422 19.8172 17.4436L15.1083 12.7083C14.912 12.511 14.8139 12.2151 14.8139 11.9191C14.8139 11.6232 15.0101 11.3272 15.3045 11.2286L18.5419 9.25554C18.9343 9.05824 18.9343 8.66363 18.8362 8.56498C18.8362 8.46633 18.7381 8.07173 18.3457 7.97308L4.90553 4.9149C4.51311 4.81625 4.31691 5.01355 4.2188 5.1122C4.1207 5.21085 3.92449 5.40815 4.0226 5.80276L6.96569 19.4166C7.06379 19.8112 7.3581 19.9098 7.55431 19.9098C7.65241 19.9098 8.04483 19.9098 8.24103 19.6139L10.2031 16.3584C10.3993 16.0625 10.5955 15.9638 10.8898 15.8652C10.9879 15.7665 11.086 15.7665 11.086 15.7665Z" fill="black"/>
</svg>

<svg xmlns="http://www.w3.org/2000/svg" fill="none" viewBox="0 0 24 25"><path fill="#000" d="M16.972 22.968a2.67 2.67 0 0 1-1.864-.79l-3.826-3.847-1.373 2.27c-.589.887-1.668 1.38-2.747 1.282-1.08-.197-1.962-.987-2.158-2.072L2.06 6.197c-.197-.888.098-1.775.686-2.466.687-.69 1.57-.888 2.453-.69L18.738 6c1.08.196 1.864 1.084 2.06 2.17s-.294 2.17-1.275 2.762l-2.158 1.38 3.826 3.848c1.079 1.085 1.079 2.762 0 3.749l-2.355 2.367c-.49.494-1.177.691-1.864.691m-5.886-7.201c.294 0 .49.098.687.296l4.709 4.735c.294.296.686.296.98 0l2.355-2.368a.76.76 0 0 0 .196-.493.76.76 0 0 0-.196-.493l-4.709-4.736c-.196-.197-.294-.493-.294-.789s.196-.592.49-.69l3.238-1.973c.392-.198.392-.592.294-.691 0-.099-.098-.493-.49-.592L4.906 4.915a.65.65 0 0 0-.687.197c-.098.099-.295.296-.196.69l2.943 13.615c.098.394.392.493.588.493.098 0 .49 0 .687-.296l1.962-3.256c.196-.296.393-.394.687-.493.098-.098.196-.098.196-.098"/></svg>
